static/images/USA_Map_Striped.svg

<svg height="100" width="100" viewBox="2 20 98 68" xmlns="http://www.w3.org/2000/svg">
    <path fill="none" stroke="#000" stroke-width="2.02" stroke-linecap="round" stroke-miterlimit="10" d="M47.708 81.92l.542-.003m35.125.003l.541-.003m-38.874-3.69h3.708m31.457 0h4.168m-41.5-3.689l10.451-.004m25.549.004l4.201-.004m-21.451.004l2.688-.004m-29.438-3.686l46.101-.003m-56.934-3.684l56.165-.004m-62.582-3.69l64.188-.002m-70.146-3.684l73.521-.004M7.542 56.091l80.333-.002M6 52.398h81.188M4.833 48.709H88.5M4.167 45.02l85.333-.001M4.167 41.332l60.896-.001m3.25.001l5.312-.001m6.25.001l11.5-.001M5 37.643l60.063-.008m3.625.008l3.125-.008m12.25.008l9.375-.008m-86.98-3.806l62.917-.001m17.813.001l7.271-.001m-1.542-3.687l4.521-.003m-89.688.003l49.264-.003M8.625 26.329l15.292-.001m69 .001l2.667-.001m-83.376-3.684l-.875-.006"/>
</svg>

<svg height="100" width="100" viewBox="2 20 98 68" xmlns="http://www.w3.org/2000/svg">
    <path fill="none" stroke="#000" stroke-width="2.02" stroke-linecap="round" stroke-miterlimit="10" d="M47.708 81.92l.542-.003M83.375 81.92l.541-.003M45.042 78.227h3.708M80.207 78.227h4.168M42.875 74.538l10.451-.004M78.875 74.538l4.201-.004M61.625 74.538l2.688-.004M34.875 70.848l46.101-.003M24.042 67.161l56.165-.004M17.625 63.467l64.188-.002M11.667 59.781l73.521-.004M7.542 56.091l80.333-.002M6 52.398h81.188M4.833 48.709H88.5M4.167 45.02l85.333-.001M4.167 41.332l60.896-.001M68.313 41.332l5.312-.001M79.875 41.332l11.5-.001M5 37.643l60.063-.008M68.688 37.643l3.125-.008M84.063 37.643l9.375-.008M6.458 33.829l62.917-.001M87.188 33.829l7.271-.001M92.917 30.141l4.521-.003M7.75 30.141l49.264-.003M8.625 26.329l15.292-.001M92.917 26.329l2.667-.001M12.208 22.644l-.875-.006"/>
</svg>
